src/google.svg

<svg width="37" height="37" viewBox="0 0 37 37" fill="none" xmlns="http://www.w3.org/2000/svg">
<g id="devicon:google" clip-path="url(#clip0_2_1163)">
<path id="Vector" d="M12.8893 1.21682C9.19241 2.4993 6.00423 4.93349 3.79304 8.16184C1.58185 11.3902 0.464201 15.2425 0.604255 19.153C0.744308 23.0635 2.13468 26.8261 4.57116 29.888C7.00763 32.9499 10.3618 35.1497 14.1409 36.1645C17.2048 36.955 20.4148 36.9898 23.495 36.2656C26.2854 35.6389 28.8651 34.2982 30.9817 32.3749C33.1846 30.312 34.7836 27.6877 35.6067 24.7841C36.5011 21.6265 36.6603 18.306 36.0721 15.0774H18.8671V22.2143H28.8311C28.6319 23.3526 28.2052 24.439 27.5764 25.4086C26.9476 26.3781 26.1297 27.2108 25.1716 27.8568C23.955 28.662 22.5834 29.2035 21.1449 29.4467C19.7023 29.715 18.2226 29.715 16.7801 29.4467C15.3179 29.1447 13.9347 28.5412 12.7187 27.6747C10.7651 26.2918 9.2982 24.3271 8.52734 22.0611C7.74366 19.7526 7.74366 17.25 8.52734 14.9415C9.07605 13.3234 9.98315 11.8501 11.1809 10.6316C12.5516 9.21156 14.287 8.19651 16.1966 7.69782C18.1062 7.19913 20.1163 7.23606 22.0063 7.80455C23.4828 8.25758 24.833 9.04948 25.9491 10.1171C27.0726 8.99934 28.1942 7.87875 29.3138 6.75526C29.8919 6.15111 30.5221 5.57588 31.0916 4.95729C29.3876 3.37183 27.3877 2.13807 25.2062 1.32666C21.2337 -0.11579 16.887 -0.154554 12.8893 1.21682Z" fill="white"/>
<path id="Vector_2" d="M12.8893 1.21676C16.8866 -0.155546 21.2333 -0.117802 25.2062 1.32371C27.388 2.14063 29.3871 3.38033 31.0886 4.97168C30.5105 5.59027 29.9006 6.1684 29.3109 6.76965C28.1894 7.88928 27.0688 9.00506 25.9491 10.117C24.833 9.04942 23.4828 8.25752 22.0063 7.80449C20.1169 7.234 18.1069 7.19494 16.1968 7.69159C14.2867 8.18824 12.5502 9.20142 11.178 10.62C9.98025 11.8385 9.07315 13.3118 8.52443 14.9299L2.53217 10.2904C4.67703 6.03705 8.39074 2.78355 12.8893 1.21676Z" fill="#E33629"/>
<path id="Vector_3" d="M0.942353 14.8866C1.26419 13.2903 1.79892 11.7445 2.5322 10.2905L8.52446 14.9415C7.74078 17.25 7.74078 19.7526 8.52446 22.0612C6.528 23.6028 4.53058 25.1522 2.5322 26.7093C0.697085 23.0564 0.137408 18.8945 0.942353 14.8866Z" fill="#F8BD00"/>
<path id="Vector_4" d="M18.8671 15.0747H36.0721C36.6603 18.3034 36.5011 21.6239 35.6067 24.7814C34.7836 27.685 33.1846 30.3093 30.9817 32.3722C29.0479 30.8633 27.1054 29.366 25.1716 27.8571C26.1303 27.2104 26.9487 26.3767 27.5775 25.4062C28.2063 24.4356 28.6327 23.3481 28.8311 22.2088H18.8671C18.8642 19.8327 18.8671 17.4537 18.8671 15.0747Z" fill="#587DBD"/>
<path id="Vector_5" d="M2.5293 26.7092C4.52768 25.1675 6.5251 23.6181 8.52156 22.061C9.29396 24.3279 10.763 26.2926 12.7188 27.6746C13.9384 28.5371 15.3246 29.1357 16.7888 29.4321C18.2313 29.7004 19.711 29.7004 21.1536 29.4321C22.592 29.189 23.9637 28.6474 25.1802 27.8423C27.1141 29.3512 29.0566 30.8485 30.9904 32.3574C28.8741 34.2818 26.2943 35.6235 23.5037 36.2511C20.4234 36.9752 17.2135 36.9405 14.1496 36.1499C11.7264 35.5029 9.46297 34.3624 7.50117 32.7997C5.42492 31.151 3.72901 29.0735 2.5293 26.7092Z" fill="#319F43"/>
</g>
<defs>
<clipPath id="clip0_2_1163">
<rect width="37" height="37" fill="white"/>
</clipPath>
</defs>
</svg>

<svg xmlns="http://www.w3.org/2000/svg" width="37" height="37" fill="none"><g clip-path="url(#a)"><path fill="#fff" d="M12.89 1.217a18.292 18.292 0 0 0 1.25 34.948 19.54 19.54 0 0 0 9.355.1 16.5 16.5 0 0 0 7.487-3.89 16.6 16.6 0 0 0 4.625-7.59 21.5 21.5 0 0 0 .465-9.708H18.867v7.137h9.964a8.6 8.6 0 0 1-3.66 5.643 10.45 10.45 0 0 1-4.026 1.59 11.9 11.9 0 0 1-4.365 0 10.7 10.7 0 0 1-4.061-1.772 11.36 11.36 0 0 1-4.192-5.614 11.07 11.07 0 0 1 0-7.12 11.35 11.35 0 0 1 2.654-4.31 10.74 10.74 0 0 1 10.825-2.826 9.9 9.9 0 0 1 3.943 2.312q1.685-1.676 3.365-3.362c.578-.604 1.208-1.18 1.778-1.798a17.7 17.7 0 0 0-5.886-3.63 18.5 18.5 0 0 0-12.317-.11"/><path fill="#E33629" d="M12.89 1.217a18.5 18.5 0 0 1 12.316.107 17.7 17.7 0 0 1 5.883 3.648C30.51 5.59 29.9 6.168 29.31 6.77q-1.683 1.68-3.362 3.347a9.9 9.9 0 0 0-3.943-2.313 10.74 10.74 0 0 0-10.828 2.816 11.35 11.35 0 0 0-2.654 4.31l-5.992-4.64A18.36 18.36 0 0 1 12.89 1.217"/><path fill="#F8BD00" d="M.942 14.887a18.2 18.2 0 0 1 1.59-4.597l5.992 4.652a11.07 11.07 0 0 0 0 7.12 1732 1732 0 0 0-5.992 4.647 18.3 18.3 0 0 1-1.59-11.822"/><path fill="#587DBD" d="M18.867 15.075h17.205c.588 3.228.43 6.549-.465 9.706a16.6 16.6 0 0 1-4.625 7.591c-1.934-1.509-3.877-3.006-5.81-4.515a8.6 8.6 0 0 0 3.66-5.648h-9.965c-.003-2.376 0-4.755 0-7.134"/><path fill="#319F43" d="M2.53 26.71q2.997-2.314 5.992-4.649a11.36 11.36 0 0 0 4.197 5.614 10.7 10.7 0 0 0 4.07 1.757c1.442.268 2.922.268 4.365 0a10.45 10.45 0 0 0 4.026-1.59c1.934 1.51 3.877 3.007 5.81 4.515a16.5 16.5 0 0 1-7.486 3.894c-3.08.724-6.29.69-9.354-.101A18.2 18.2 0 0 1 7.5 32.8a18.4 18.4 0 0 1-4.972-6.09"/></g><defs><clipPath id="a"><path fill="#fff" d="M0 0h37v37H0z"/></clipPath></defs></svg>
